X:1
T:Harvest Away
M:2/4
L:1/8
K:C
 E2| GG GA| FF FG| EE FG| D3 D| EC FD| GA FE| DC CB,| C3 E| DC B,C|\
 DE CC| FF GA| D3 D| EC FD| GA FE| DC CB,| C2 E2| G2 A2| F3 G| E3/2 E/2 FG|\
 D3 D| EC FD| GA FE| DC CB,| C2||
